X:85
T:Gateshead Hornpipe.  WHL.[085], The
B:W.H.Lister MS, East Boldon, c1850
Z:Village Music Project 2017 Mike Hicken
N: Above this tune is written "A Reel by James Horn Newcastle Upon Tyne"
N:Elsewhere in the MS it is attributed to James Hill
N: NB1 Repeat sign added to give correct repeat.
N:NB2 accidental sign at beginning of bar looks like a sharp but I interpret it
N:as a reminder to return to d natural
M:C|
L:1/8
Q:1/2=80
K:A
E2"^NB1"|:A2 cA E2 FG|A2 ce a2 ec|BfdB AecA|BABc BdcB|
A2 cA E2 FG|ABc^d efga|agba gfe^d|1 edef edcB :|2 e^def e2 ||
|:ed|ce^de fede|Be^de fede|"^NB2"decd BcAB|GAFG EFDE|
CEAc eaga|fdBA GFED|CEAc cBAG|A2A2A2 :|

